T: Castle, The
M: 6/8
L: 1/8
K: Ador
c3 BAG|AGE DB,G,|~A,3 EDB,|DEG AGE| versus a3 bag| eaf    ged   | c2A BAG |EFG ABd||'Long' bag|XXX XXX|'Long' XXX|-EG AXX||
